icons/svgs/moon-stars-solid.svg

<svg width="24" height="24" viewBox="0 0 24 24" fill="none" xmlns="http://www.w3.org/2000/svg">
<path d="M13.0938 5.90625L11.6094 5.47656C11.4531 5.4375 11.375 5.28125 11.375 5.125C11.375 5.00781 11.4531 4.85156 11.6094 4.8125L13.0938 4.38281L13.5234 2.89844C13.5625 2.74219 13.7188 2.625 13.875 2.625C13.9922 2.625 14.1484 2.74219 14.1875 2.89844L14.6172 4.38281L16.1016 4.8125C16.2578 4.85156 16.375 5.00781 16.375 5.125C16.375 5.28125 16.2578 5.4375 16.1016 5.47656L14.6172 5.90625L14.1875 7.39062C14.1484 7.54688 13.9922 7.625 13.875 7.625C13.7188 7.625 13.5625 7.54688 13.5234 7.39062L13.0938 5.90625ZM17.7422 14.1484L17.1172 11.8828L14.8516 11.2578C14.6172 11.1797 14.5 10.9844 14.5 10.75C14.5 10.5547 14.6172 10.3594 14.8516 10.2812L17.1172 9.65625L17.7422 7.39062C17.8203 7.15625 18.0156 7 18.25 7C18.4453 7 18.6406 7.15625 18.7188 7.39062L19.3438 9.65625L21.6094 10.2812C21.8438 10.3594 22 10.5547 22 10.75C22 10.9844 21.8438 11.1797 21.6094 11.2578L19.3438 11.8828L18.7188 14.1484C18.6406 14.3828 18.4453 14.5 18.25 14.5C18.0156 14.5 17.8203 14.3828 17.7422 14.1484ZM9.46094 7V7.03906C9.69531 7.03906 9.89062 7.03906 10.125 7.03906C10.3984 7.07812 10.5938 7.27344 10.6719 7.54688C10.7109 7.82031 10.5938 8.09375 10.3594 8.21094C8.64062 9.1875 7.46875 11.0625 7.46875 13.2109C7.46875 16.375 10.0078 18.9141 13.1719 18.9141C13.5234 18.9141 13.8359 18.9141 14.1484 18.8359C14.4219 18.7969 14.6953 18.9531 14.8125 19.1875C14.9297 19.4219 14.8906 19.7344 14.6953 19.8906C13.3281 21.2188 11.4922 22.0391 9.46094 22.0391C5.32031 22.0391 2 18.6797 2 14.5391C2 10.3984 5.32031 7 9.46094 7Z" fill="black"/>
</svg>

<svg xmlns="http://www.w3.org/2000/svg" width="24" height="24" fill="currentColor" class="icon-moon-stars-solid" viewBox="0 0 24 24">
  <mask id="a" width="20" height="21" x="2" y="2" maskUnits="userSpaceOnUse" style="mask-type:alpha">
    <path d="m13.094 5.906-1.485-.43c-.156-.038-.234-.195-.234-.351 0-.117.078-.273.234-.312l1.485-.43.43-1.485a.375.375 0 0 1 .351-.273c.117 0 .273.117.313.273l.43 1.485 1.484.43c.156.039.273.195.273.312a.375.375 0 0 1-.273.352l-1.485.43-.43 1.484c-.039.156-.195.234-.312.234-.156 0-.312-.078-.352-.234zm4.648 8.242-.625-2.265-2.265-.625c-.235-.078-.352-.274-.352-.508 0-.195.117-.39.352-.469l2.265-.625.625-2.265c.078-.235.274-.391.508-.391.195 0 .39.156.469.39l.625 2.266 2.265.625c.235.078.391.274.391.469 0 .234-.156.43-.39.508l-2.266.625-.625 2.265a.49.49 0 0 1-.469.352c-.234 0-.43-.117-.508-.352M9.461 7v.04h.664c.273.038.469.233.547.507.039.273-.078.547-.313.664a5.75 5.75 0 0 0-2.89 5 5.685 5.685 0 0 0 5.703 5.703c.351 0 .664 0 .976-.078a.66.66 0 0 1 .665.352c.117.234.078.546-.118.703-1.367 1.328-3.203 2.148-5.234 2.148C5.32 22.04 2 18.68 2 14.54S5.32 7 9.46 7"/>
  </mask>
  <g mask="url(#a)">
    <path d="M0 0h24v24H0z"/>
  </g>
</svg>
